symbols/web/add_call/materialsymbolssharp/add_call_wght700grad200fill1_40px.svg

<svg xmlns="http://www.w3.org/2000/svg" height="40" width="40"><path d="M27.542 17.458v-5.166h-5.25V8.875h5.25V3.667h3.333v5.208h5.25v3.417h-5.25v5.166Zm5.708 18.667q-5.417.083-10.708-2.479-5.292-2.563-9.459-6.75-4.166-4.188-6.729-9.521-2.562-5.333-2.562-10.708 0-.667.041-1.5.042-.834.167-1.459h11.75l2.167 9.709-5.792 5.208q1.792 2.875 4.083 5.146 2.292 2.271 5 3.854l5.834-5.708 9.166 2.166v11.834q-.625.041-1.458.125-.833.083-1.5.083Z"/></svg>

<svg xmlns="http://www.w3.org/2000/svg" height="40" width="40"><path d="M27.542 17.458V12.292H22.292V8.875H27.542V3.667H30.875V8.875H36.125V12.292H30.875V17.458ZM33.25 36.125Q27.833 36.208 22.542 33.646Q17.25 31.083 13.083 26.896Q8.917 22.708 6.354 17.375Q3.792 12.042 3.792 6.667Q3.792 6 3.833 5.167Q3.875 4.333 4 3.708H15.75L17.917 13.417L12.125 18.625Q13.917 21.5 16.208 23.771Q18.5 26.042 21.208 27.625L27.042 21.917L36.208 24.083V35.917Q35.583 35.958 34.75 36.042Q33.917 36.125 33.25 36.125Z"/></svg>
